packages/icons/svg/24/Projects.svg

<svg width="24" height="24" viewBox="0 0 24 24" fill="none" xmlns="http://www.w3.org/2000/svg">
<path d="M7.5 8C7.22386 8 7 8.22386 7 8.5C7 8.77614 7.22386 9 7.5 9H16.5C16.7761 9 17 8.77614 17 8.5C17 8.22386 16.7761 8 16.5 8H7.5Z" fill="#858585"/>
<path d="M7 10.5C7 10.2239 7.22386 10 7.5 10H16.5C16.7761 10 17 10.2239 17 10.5C17 10.7761 16.7761 11 16.5 11H7.5C7.22386 11 7 10.7761 7 10.5Z" fill="#858585"/>
<path d="M7 12.5C7 12.2239 7.22386 12 7.5 12H16.5C16.7761 12 17 12.2239 17 12.5C17 12.7761 16.7761 13 16.5 13H7.5C7.22386 13 7 12.7761 7 12.5Z" fill="#858585"/>
<path fill-rule="evenodd" clip-rule="evenodd" d="M4 7C4 5.34315 5.34315 4 7 4H17C18.6569 4 20 5.34315 20 7V17C20 18.6569 18.6569 20 17 20H7C5.34315 20 4 18.6569 4 17V7ZM7 6C6.44772 6 6 6.44772 6 7V15H9.5C9.5 16.3807 10.6193 17.5 12 17.5C13.3807 17.5 14.5 16.3807 14.5 15H18V7C18 6.44772 17.5523 6 17 6H7Z" fill="#858585"/>
</svg>

<svg width="24" height="24" fill="none" xmlns="http://www.w3.org/2000/svg" viewBox="0 0 24 24"><path d="M7.5 8a.5.5 0 000 1h9a.5.5 0 000-1h-9zM7 10.5a.5.5 0 01.5-.5h9a.5.5 0 010 1h-9a.5.5 0 01-.5-.5zM7 12.5a.5.5 0 01.5-.5h9a.5.5 0 010 1h-9a.5.5 0 01-.5-.5z" fill="currentColor"></path><path fill-rule="evenodd" clip-rule="evenodd" d="M4 7a3 3 0 013-3h10a3 3 0 013 3v10a3 3 0 01-3 3H7a3 3 0 01-3-3V7zm3-1a1 1 0 00-1 1v8h3.5a2.5 2.5 0 005 0H18V7a1 1 0 00-1-1H7z" fill="currentColor"></path></svg>
